X: 41731
T: Valse Astrid
R: waltz
M: 3/4
K: Aminor
|:E2|"Am" A4 B2|c4 d2|"Am" cBc dcB|A2 c2 e2|
"Dm" a3 gfe|d2 f2 a2|1 "Am" e4 c2|B4:|2 "Am" e6-|e4||
|:e2|"Dm" a3 gfe|d2 f2 a2|"Am" e3 fec|A4 B2|
"G" c2 f2 e2|d2 c2 B2|1 "Am" A3 Bcd|e4:|2 "Am" A6-|A4||

